X:1
T:The Little Brown Bulls
M:3/4
L:1/4
K:G
 z2 G/2A/2| B A G| E D D| E G A| G2 D/2D/2| G B d| e d B| G A B| A2 D/2D/2|\
 G B d| e d B| A G A| B2 G/2A/2| B A G| E D D| B, E E| E2 z|
